X: 14021
T: Katherine Ogie
%R: air, strathspey + reel
B: James Oswald "The Caledonian Pocket Companion" v.1 b.4 p.2 (and 2 staffs on p.3)
S: https://ia800501.us.archive.org/18/items/caledonianpocket01rugg/caledonianpocket01rugg_bw.pdf
Z: 2020 John Chambers <jc:trillian.mit.edu>
M: C
L: 1/8
K: Am
"_Slow"TA>G |\
E2A>B A3B | (c>d)(B>c) A2(G/A/B/c/) | B3g (d<B) (TA>G) | G3A (G/A/B) (TA>G) | E2A>B A3B | c>dB>c A2(a>g) | e2d(c/B/) c>dB>c |
A4 e2 :: A>B | (c>d)(e>f) g3a | .g(edc) g2(Td>c) | B2(g<e) (dB)(AB) | (GA)(Bc) d2(cB) | (ed)(cB) A2E2 | ABcd e2dc |
(de)(ga) g/(e/d/e/) gB | A4 e2 :: eg | a2A<B A2eg | g^gab A2(e^f) | e/^f/g fe (dc)(BA) | (G3A) G2(eg) |
ageg ageg | a/b/a/g/ eg a2ga | bgae g/e/d/e/ gB | A4 a2(g>f) | (g/a/b) Ta>g (e/g/a) (Tg>e) | (d/e/g) Te>d (B/c/d) TB>A |
G(g/a/) (^f/g/)(e/f/) (d/e/)(c/d/) (B/c/)(A/B/) | (G^FGA) (BA)(BG) | (cBc)A (dcd)B | (ede)g (deg)a | (b/a/g/b/) (a/g/e/a/) (g/f/d/e/) gB |
A4 e2 :: zd | e2a>b a2g>a | {ga}b2Ta>g a2g>e | (d>e)(g>a) {ga}b2a>g | g3a (g/a/b) Ta>g | e2a>b a2g>a | {ga}b2Ta>g a2g>a |
(b//a//g3/) (a//g//e3/) (g/e/d/e/) gB | A4 e2(A>B) | (c>d) e/(g/^f/a/) g3a | (g/e/d/c/) (d/c/d/e/) g2Td>c | Bg2(^f/e/ d/)(g/^f/e/ d/)c/B/A/ |
(G/^F/G/)A/ B/(g/^f/e/) (d<B) (TA>G) | c/B/A/B/ (c/A/)a d/c/B/c/ (d/B/)b | (c'/b/)(a/g/) (e/d/)(e/g/) a2(g>a) | (b/a/g/e/) (g/e/d/B/) (deg)B | A4 e2 :|
M:C|
|: "_Brisk"AG |\
E2A2 A2GA | B2A2 A3B | d3e (dB)(AB) | G4 TB2(AB) |\
E2A2 A2(GA) | B2A2 g3a | (ba)(ge) (ge)(dB) | A4 e2 :|
|: (AB) |\
c2(de) g3a | (ge)(de) g2(ed) | B2g2 (dB)(AB) | G4 B2(AB) |\
c2c2 d2d2 | (ed)(eg) a3g | e2(de) (ge)(dB) | A4 e2 :|
